X:231
T:Repeal Of The Union
S:Caitlin nic Gabhann
Z:robin.beech@mcgill.ca
R:jig
M:6/8
L:1/8
K:Dmix
G2D GBd | edB deg | bge edB | dBG AGE |
G2D GBd | edB deg | age deg |1 aba gab :|2 aba gdB |:
c'2b a2b | g2b e2g | dBd g2e | dBG AGE
G2D GBd | edB deg | age deg |1 aba gab :|2 aba gdB |:
G2D GBc | ded B2d | cdc A2c | B2A GED |
G2D GBc | ded B2d | cAF DEF | G2G DEF :|
